X: 2
T: Halting March, The
Z: ceolachan
S: https://thesession.org/tunes/1330#setting23544
R: barndance
M: 4/4
L: 1/8
K: Ador
|: E |A2 B/c/d e2- e^d | e>^d ef e^c A2 | G2 G/A/B/c/ dd- d>e | dB GB de/d/ cB |
A2 A/B/c/d/ ee- e>^d | e>^d ef e^c A2 | ag- ge dc- cB | A>B A^G A2- A :|
e |aa- ag ed- de | g>a ge dB G2 | aa- ag ed- de | g>a ge g2 e/f/g/^g/ |
aa- aa/g/ ed- de | g>a ge dB G2 | A2 B/c/d e2 dB | A>B cd e2- e^g |
aa- ag ed- de | g>a ge dB GE | A>B cd e2 dB | AA- A^G A2- A |]
